; generated by PrusaSlicer 2.9.2 on 2025-05-11 at 07:35:32 UTC

; 

; external perimeters extrusion width = 16.88mm
; perimeters extrusion width = 16.88mm
; infill extrusion width = 16.88mm
; solid infill extrusion width = 16.88mm
; top infill extrusion width = 15.00mm
; first layer extrusion width = 15.75mm

M104 S200 ; set temperature
;TYPE:Custom
G28 ; home all axes
G1 Z5 F5000 ; lift nozzle
M109 S200 ; set temperature and wait for it to be reached
G21 ; set units to millimeters
G90 ; use absolute coordinates
M82 ; use absolute distances for extrusion
G92 E0
; Filament gcode
M107
;LAYER_CHANGE
;Z:7.5
;HEIGHT:7.5
G1 E-2 F2400
G92 E0
G1 Z7.5 F7800
G92 E0
G1 X491.384 Y242.603
G1 E2 F2400
;TYPE:Perimeter
;WIDTH:23.7522
G1 F1800
G1 X488.616 Y242.603 E2.5063
G1 X487.232 Y245 E3.01258
G1 X488.616 Y247.397 E3.51886
G1 X491.384 Y247.397 E4.02516
G1 X492.768 Y245 E4.53144
G1 E2.53144 F2400
G92 E0
G1 X508.142 Y263.142 F7800
G1 E2 F2400
;WIDTH:15.75
G1 F1800
G1 X471.858 Y263.142 E6.23831
G1 X471.858 Y226.858 E10.47662
G1 X508.142 Y226.858 E14.71493
G1 X508.142 Y245 E16.83409
G1 X508.142 Y260.892 E18.69043
G1 E16.69043 F2400
G92 E0
G1 X522.282 Y277.282 F7800
G1 E2 F2400
G1 F1800
G1 X457.718 Y277.282 E9.54168
G1 X457.718 Y212.718 E17.08336
G1 X522.282 Y212.718 E24.62504
G1 X522.282 Y245 E28.39588
G1 X522.282 Y275.032 E31.9039
G1 E29.9039 F2400
G92 E0
G1 X536.423 Y291.423 F7800
G1 E2 F2400
G1 F1800
G1 X443.577 Y291.423 E12.84529
G1 X443.577 Y198.577 E23.69058
G1 X536.423 Y198.577 E34.53587
G1 X536.423 Y245 E39.95851
G1 X536.423 Y289.173 E45.11833
G1 E43.11833 F2400
G92 E0
G1 X550.563 Y305.563 F7800
G1 E2 F2400
G1 F1800
G1 X429.437 Y305.563 E16.14866
G1 X429.437 Y184.437 E30.29732
G1 X550.563 Y184.437 E44.44598
G1 X550.563 Y245 E51.52031
G1 X550.563 Y303.313 E58.33182
G1 E56.33182 F2400
G92 E0
G1 X564.704 Y319.704 F7800
G1 E2 F2400
G1 F1800
G1 X415.296 Y319.704 E19.45226
G1 X415.296 Y170.296 E36.90452
G1 X564.704 Y170.296 E54.35678
G1 X564.704 Y245 E63.08291
G1 X564.704 Y317.454 E71.54622
G1 E69.54622 F2400
G92 E0
G1 X578.844 Y333.844 F7800
G1 E2 F2400
G1 F1800
G1 X401.156 Y333.844 E22.75563
G1 X401.156 Y156.156 E43.51126
G1 X578.844 Y156.156 E64.26689
G1 X578.844 Y245 E74.64471
G1 X578.844 Y331.594 E84.7597
G1 E82.7597 F2400
G92 E0
G1 X592.985 Y347.985 F7800
G1 E2 F2400
G1 F1800
G1 X387.015 Y347.985 E26.05923
G1 X387.015 Y142.015 E50.11846
G1 X592.985 Y142.015 E74.17769
G1 X592.985 Y245 E86.20731
G1 X592.985 Y345.735 E97.97411
G1 E95.97411 F2400
G92 E0
G1 X607.125 Y362.125 F7800
G1 E2 F2400
;TYPE:External perimeter
G1 F1800
G1 X372.875 Y362.125 E29.36261
G1 X372.875 Y127.875 E56.72522
G1 X607.125 Y127.875 E84.08783
G1 X607.125 Y245 E97.76913
G1 X607.125 Y359.875 E111.18761
G1 X592.291 Y362.1 F7800
;LAYER_CHANGE
;Z:15
;HEIGHT:7.5
G1 E109.18761 F2400
G92 E0
G1 Z15 F7800
G1 X498.651 Y253.651
G1 E2 F2400
;TYPE:Perimeter
;WIDTH:18.9114
G1 F9000
G1 X481.349 Y253.651 E4.47288
G1 X481.349 Y236.349 E6.94576
G1 X498.651 Y236.349 E9.41864
G1 X498.651 Y245 E10.65508
G1 X498.651 Y251.401 E11.56994
G1 E9.56994 F2400
G92 E0
G1 X514.937 Y269.937 F7800
G1 E2 F2400
;WIDTH:16.88
G1 F9000
G1 X465.063 Y269.937 E8.2913
G1 X465.063 Y220.063 E14.5826
G1 X514.937 Y220.063 E20.8739
G1 X514.937 Y245 E24.01955
G1 X514.937 Y267.687 E26.88138
G1 E24.88138 F2400
G92 E0
G1 X530.208 Y285.208 F7800
G1 E2 F2400
G1 F9000
G1 X449.792 Y285.208 E12.14399
G1 X449.792 Y204.792 E22.28798
G1 X530.208 Y204.792 E32.43197
G1 X530.208 Y245 E37.50396
G1 X530.208 Y282.958 E42.29213
G1 E40.29213 F2400
G92 E0
G1 X545.478 Y300.478 F7800
G1 E2 F2400
G1 F9000
G1 X434.522 Y300.478 E15.99643
G1 X434.522 Y189.522 E29.99286
G1 X545.478 Y189.522 E43.98929
G1 X545.478 Y245 E50.9875
G1 X545.478 Y298.228 E57.70189
G1 E55.70189 F2400
G92 E0
G1 X560.749 Y315.749 F7800
G1 E2 F2400
G1 F9000
G1 X419.251 Y315.749 E19.84911
G1 X419.251 Y174.251 E37.69822
G1 X560.749 Y174.251 E55.54733
G1 X560.749 Y245 E64.47189
G1 X560.749 Y313.499 E73.11262
G1 E71.11262 F2400
G92 E0
G1 X576.019 Y331.019 F7800
G1 E2 F2400
G1 F9000
G1 X403.981 Y331.019 E23.70155
G1 X403.981 Y158.981 E45.4031
G1 X576.019 Y158.981 E67.10465
G1 X576.019 Y245 E77.95542
G1 X576.019 Y328.769 E88.52237
G1 E86.52237 F2400
G92 E0
G1 X591.29 Y346.29 F7800
G1 E2 F2400
G1 F9000
G1 X388.71 Y346.29 E27.55424
G1 X388.71 Y143.71 E53.10848
G1 X591.29 Y143.71 E78.66272
G1 X591.29 Y245 E91.43984
G1 X591.29 Y344.04 E103.93313
G1 E101.93313 F2400
G92 E0
G1 X606.56 Y361.56 F7800
G1 E2 F2400
;TYPE:External perimeter
G1 F9000
G1 X373.44 Y361.56 E31.40667
G1 X373.44 Y128.44 E60.81334
G1 X606.56 Y128.44 E90.22001
G1 X606.56 Y245 E104.92335
G1 X606.56 Y359.31 E119.34286
G1 X591.726 Y361.535 F7800
;LAYER_CHANGE
;Z:22.5
;HEIGHT:7.5
G1 E117.34286 F2400
G92 E0
G1 Z22.5 F7800
G1 X498.651 Y253.651
G1 E2 F2400
;TYPE:Perimeter
;WIDTH:18.9114
G1 F9000
G1 X481.349 Y253.651 E4.47288
G1 X481.349 Y236.349 E6.94576
G1 X498.651 Y236.349 E9.41864
G1 X498.651 Y245 E10.65508
G1 X498.651 Y251.401 E11.56994
G1 E9.56994 F2400
G92 E0
G1 X514.937 Y269.937 F7800
G1 E2 F2400
;WIDTH:16.88
G1 F9000
G1 X465.063 Y269.937 E8.2913
G1 X465.063 Y220.063 E14.5826
G1 X514.937 Y220.063 E20.8739
G1 X514.937 Y245 E24.01955
G1 X514.937 Y267.687 E26.88138
G1 E24.88138 F2400
G92 E0
G1 X530.208 Y285.208 F7800
G1 E2 F2400
G1 F9000
G1 X449.792 Y285.208 E12.14399
G1 X449.792 Y204.792 E22.28798
G1 X530.208 Y204.792 E32.43197
G1 X530.208 Y245 E37.50396
G1 X530.208 Y282.958 E42.29213
G1 E40.29213 F2400
G92 E0
G1 X545.478 Y300.478 F7800
G1 E2 F2400
G1 F9000
G1 X434.522 Y300.478 E15.99643
G1 X434.522 Y189.522 E29.99286
G1 X545.478 Y189.522 E43.98929
G1 X545.478 Y245 E50.9875
G1 X545.478 Y298.228 E57.70189
G1 E55.70189 F2400
G92 E0
G1 X560.749 Y315.749 F7800
G1 E2 F2400
G1 F9000
G1 X419.251 Y315.749 E19.84911
G1 X419.251 Y174.251 E37.69822
G1 X560.749 Y174.251 E55.54733
G1 X560.749 Y245 E64.47189
G1 X560.749 Y313.499 E73.11262
G1 E71.11262 F2400
G92 E0
G1 X576.019 Y331.019 F7800
G1 E2 F2400
G1 F9000
G1 X403.981 Y331.019 E23.70155
G1 X403.981 Y158.981 E45.4031
G1 X576.019 Y158.981 E67.10465
G1 X576.019 Y245 E77.95542
G1 X576.019 Y328.769 E88.52237
G1 E86.52237 F2400
G92 E0
G1 X591.29 Y346.29 F7800
G1 E2 F2400
G1 F9000
G1 X388.71 Y346.29 E27.55424
G1 X388.71 Y143.71 E53.10848
G1 X591.29 Y143.71 E78.66272
G1 X591.29 Y245 E91.43984
G1 X591.29 Y344.04 E103.93313
G1 E101.93313 F2400
G92 E0
G1 X606.56 Y361.56 F7800
G1 E2 F2400
;TYPE:External perimeter
G1 F9000
G1 X373.44 Y361.56 E31.40667
G1 X373.44 Y128.44 E60.81334
G1 X606.56 Y128.44 E90.22001
G1 X606.56 Y245 E104.92335
G1 X606.56 Y359.31 E119.34286
G1 X591.726 Y361.535 F7800
M106 S178.5
;LAYER_CHANGE
;Z:30
;HEIGHT:7.5
G1 E117.34286 F2400
G92 E0
G1 Z30 F7800
G1 X498.651 Y253.651
G1 E2 F2400
;TYPE:Perimeter
;WIDTH:18.9114
G1 F9000
G1 X481.349 Y253.651 E4.47288
G1 X481.349 Y236.349 E6.94576
G1 X498.651 Y236.349 E9.41864
G1 X498.651 Y245 E10.65508
G1 X498.651 Y251.401 E11.56994
G1 E9.56994 F2400
G92 E0
G1 X514.937 Y269.937 F7800
G1 E2 F2400
;WIDTH:16.88
G1 F9000
G1 X465.063 Y269.937 E8.2913
G1 X465.063 Y220.063 E14.5826
G1 X514.937 Y220.063 E20.8739
G1 X514.937 Y245 E24.01955
G1 X514.937 Y267.687 E26.88138
G1 E24.88138 F2400
G92 E0
G1 X530.208 Y285.208 F7800
G1 E2 F2400
G1 F9000
G1 X449.792 Y285.208 E12.14399
G1 X449.792 Y204.792 E22.28798
G1 X530.208 Y204.792 E32.43197
G1 X530.208 Y245 E37.50396
G1 X530.208 Y282.958 E42.29213
G1 E40.29213 F2400
G92 E0
G1 X545.478 Y300.478 F7800
G1 E2 F2400
G1 F9000
G1 X434.522 Y300.478 E15.99643
G1 X434.522 Y189.522 E29.99286
G1 X545.478 Y189.522 E43.98929
G1 X545.478 Y245 E50.9875
G1 X545.478 Y298.228 E57.70189
G1 E55.70189 F2400
G92 E0
G1 X560.749 Y315.749 F7800
G1 E2 F2400
G1 F9000
G1 X419.251 Y315.749 E19.84911
G1 X419.251 Y174.251 E37.69822
G1 X560.749 Y174.251 E55.54733
G1 X560.749 Y245 E64.47189
G1 X560.749 Y313.499 E73.11262
G1 E71.11262 F2400
G92 E0
G1 X576.019 Y331.019 F7800
G1 E2 F2400
G1 F9000
G1 X403.981 Y331.019 E23.70155
G1 X403.981 Y158.981 E45.4031
G1 X576.019 Y158.981 E67.10465
G1 X576.019 Y245 E77.95542
G1 X576.019 Y328.769 E88.52237
G1 E86.52237 F2400
G92 E0
G1 X591.29 Y346.29 F7800
G1 E2 F2400
G1 F9000
G1 X388.71 Y346.29 E27.55424
G1 X388.71 Y143.71 E53.10848
G1 X591.29 Y143.71 E78.66272
G1 X591.29 Y245 E91.43984
G1 X591.29 Y344.04 E103.93313
G1 E101.93313 F2400
G92 E0
G1 X606.56 Y361.56 F7800
G1 E2 F2400
;TYPE:External perimeter
G1 F9000
G1 X373.44 Y361.56 E31.40667
G1 X373.44 Y128.44 E60.81334
G1 X606.56 Y128.44 E90.22001
G1 X606.56 Y245 E104.92335
G1 X606.56 Y359.31 E119.34286
G1 X591.726 Y361.535 F7800
G1 E117.34286 F2400
G92 E0
M107
;TYPE:Custom
; Filament-specific end gcode 
;END gcode for filament
M104 S0 ; turn off temperature
G28 X0  ; home X axis
M84     ; disable motors
; objects_info = {"objects":[]}
; filament used [mm] = 2028.11
; filament used [cm3] = 1841.36
; total filament used [g] = 0.00
; total filament cost = 0.00
; total filament used for wipe tower [g] = 0.00
; estimated printing time (normal mode) = 4m 32s
; estimated first layer printing time (normal mode) = 2m 33s

; prusaslicer_config = begin
; arc_fitting = disabled
; autoemit_temperature_commands = 1
; automatic_extrusion_widths = 0
; automatic_infill_combination = 0
; automatic_infill_combination_max_layer_height = 100%
; avoid_crossing_curled_overhangs = 0
; avoid_crossing_perimeters = 0
; avoid_crossing_perimeters_max_detour = 0
; bed_custom_model = 
; bed_custom_texture = 
; bed_shape = 0x0,980x0,980x490,0x490
; bed_temperature = 0
; bed_temperature_extruder = 0
; before_layer_gcode = 
; between_objects_gcode = 
; binary_gcode = 0
; bottom_fill_pattern = monotonic
; bottom_solid_layers = 3
; bottom_solid_min_thickness = 0
; bridge_acceleration = 0
; bridge_angle = 0
; bridge_fan_speed = 100
; bridge_flow_ratio = 1
; bridge_speed = 60
; brim_separation = 0
; brim_type = outer_only
; brim_width = 0
; chamber_minimal_temperature = 0
; chamber_temperature = 0
; color_change_gcode = M600
; colorprint_heights = 
; complete_objects = 0
; cooling = 1
; cooling_tube_length = 5
; cooling_tube_retraction = 91.5
; default_acceleration = 0
; default_filament_profile = 
; default_print_profile = 
; deretract_speed = 0
; disable_fan_first_layers = 3
; dont_support_bridges = 1
; draft_shield = disabled
; duplicate_distance = 6
; elefant_foot_compensation = 0
; enable_dynamic_fan_speeds = 0
; enable_dynamic_overhang_speeds = 0
; end_filament_gcode = "; Filament-specific end gcode \n;END gcode for filament\n"
; end_gcode = M104 S0 ; turn off temperature\nG28 X0  ; home X axis\nM84     ; disable motors\n
; ensure_vertical_shell_thickness = enabled
; external_perimeter_acceleration = 0
; external_perimeter_extrusion_width = 16.88
; external_perimeter_speed = 150
; external_perimeters_first = 0
; extra_loading_move = -2
; extra_perimeters = 1
; extra_perimeters_on_overhangs = 0
; extruder_clearance_height = 20
; extruder_clearance_radius = 20
; extruder_colour = ""
; extruder_offset = 0x0
; extrusion_axis = E
; extrusion_multiplier = 1
; extrusion_width = 16.88
; fan_always_on = 0
; fan_below_layer_time = 60
; filament_abrasive = 0
; filament_colour = #29B2B2
; filament_cooling_final_speed = 3.4
; filament_cooling_initial_speed = 2.2
; filament_cooling_moves = 4
; filament_cost = 0
; filament_density = 0
; filament_deretract_speed = nil
; filament_diameter = 34
; filament_infill_max_crossing_speed = 0
; filament_infill_max_speed = 0
; filament_load_time = 0
; filament_loading_speed = 28
; filament_loading_speed_start = 3
; filament_max_volumetric_speed = 0
; filament_minimal_purge_on_wipe_tower = 15
; filament_multitool_ramming = 0
; filament_multitool_ramming_flow = 10
; filament_multitool_ramming_volume = 10
; filament_notes = ""
; filament_purge_multiplier = 100%
; filament_ramming_parameters = "120 100 6.6 6.8 7.2 7.6 7.9 8.2 8.7 9.4 9.9 10.0| 0.05 6.6 0.45 6.8 0.95 7.8 1.45 8.3 1.95 9.7 2.45 10 2.95 7.6 3.45 7.6 3.95 7.6 4.45 7.6 4.95 7.6"
; filament_retract_before_travel = nil
; filament_retract_before_wipe = nil
; filament_retract_layer_change = nil
; filament_retract_length = nil
; filament_retract_length_toolchange = nil
; filament_retract_lift = nil
; filament_retract_lift_above = nil
; filament_retract_lift_below = nil
; filament_retract_restart_extra = nil
; filament_retract_restart_extra_toolchange = nil
; filament_retract_speed = nil
; filament_seam_gap_distance = nil
; filament_settings_id = StoneFlowerVersionF15
; filament_shrinkage_compensation_xy = 0%
; filament_shrinkage_compensation_z = 0%
; filament_soluble = 0
; filament_spool_weight = 0
; filament_stamping_distance = 0
; filament_stamping_loading_speed = 20
; filament_toolchange_delay = 0
; filament_travel_lift_before_obstacle = nil
; filament_travel_max_lift = nil
; filament_travel_ramping_lift = nil
; filament_travel_slope = nil
; filament_type = PLA
; filament_unload_time = 0
; filament_unloading_speed = 90
; filament_unloading_speed_start = 100
; filament_vendor = (Unknown)
; filament_wipe = nil
; fill_angle = 45
; fill_density = 100%
; fill_pattern = rectilinear
; first_layer_acceleration = 0
; first_layer_acceleration_over_raft = 0
; first_layer_bed_temperature = 0
; first_layer_extrusion_width = 15.75
; first_layer_height = 7.5
; first_layer_infill_speed = 0
; first_layer_speed = 30
; first_layer_speed_over_raft = 30
; first_layer_temperature = 200
; full_fan_speed_layer = 0
; fuzzy_skin = none
; fuzzy_skin_point_dist = 0.8
; fuzzy_skin_thickness = 0.3
; gap_fill_enabled = 1
; gap_fill_speed = 20
; gcode_comments = 0
; gcode_flavor = reprap
; gcode_label_objects = disabled
; gcode_resolution = 0.0125
; gcode_substitutions = 
; high_current_on_filament_swap = 0
; host_type = prusalink
; idle_temperature = nil
; infill_acceleration = 0
; infill_anchor = 600%
; infill_anchor_max = 50
; infill_every_layers = 1
; infill_extruder = 1
; infill_extrusion_width = 16.88
; infill_first = 0
; infill_overlap = 25%
; infill_speed = 150
; interface_shells = 0
; interlocking_beam = 0
; interlocking_beam_layer_count = 2
; interlocking_beam_width = 0.8
; interlocking_boundary_avoidance = 2
; interlocking_depth = 2
; interlocking_orientation = 22.5
; ironing = 0
; ironing_flowrate = 15%
; ironing_spacing = 0.1
; ironing_speed = 15
; ironing_type = top
; layer_gcode = 
; layer_height = 7.5
; machine_limits_usage = time_estimate_only
; machine_max_acceleration_e = 10000,5000
; machine_max_acceleration_extruding = 1500,1250
; machine_max_acceleration_retracting = 1500,1250
; machine_max_acceleration_travel = 1500,1250
; machine_max_acceleration_x = 9000,1000
; machine_max_acceleration_y = 9000,1000
; machine_max_acceleration_z = 500,200
; machine_max_feedrate_e = 120,120
; machine_max_feedrate_x = 500,200
; machine_max_feedrate_y = 500,200
; machine_max_feedrate_z = 12,12
; machine_max_jerk_e = 2.5,2.5
; machine_max_jerk_x = 10,10
; machine_max_jerk_y = 10,10
; machine_max_jerk_z = 0.2,0.4
; machine_min_extruding_rate = 0,0
; machine_min_travel_rate = 0,0
; max_fan_speed = 100
; max_layer_height = 0
; max_print_height = 485
; max_print_speed = 80
; max_volumetric_extrusion_rate_slope_negative = 0
; max_volumetric_extrusion_rate_slope_positive = 0
; max_volumetric_speed = 0
; min_bead_width = 85%
; min_fan_speed = 35
; min_feature_size = 25%
; min_layer_height = 0.07
; min_print_speed = 10
; min_skirt_length = 0
; mmu_segmented_region_interlocking_depth = 0
; mmu_segmented_region_max_width = 0
; multimaterial_purging = 140
; notes = 
; nozzle_diameter = 15
; nozzle_high_flow = 0
; only_one_perimeter_first_layer = 0
; only_retract_when_crossing_perimeters = 0
; ooze_prevention = 0
; output_filename_format = [input_filename_base].gcode
; over_bridge_speed = 0
; overhang_fan_speed_0 = 0
; overhang_fan_speed_1 = 0
; overhang_fan_speed_2 = 0
; overhang_fan_speed_3 = 0
; overhang_speed_0 = 15
; overhang_speed_1 = 15
; overhang_speed_2 = 20
; overhang_speed_3 = 25
; overhangs = 1
; parking_pos_retraction = 92
; pause_print_gcode = M601
; perimeter_acceleration = 0
; perimeter_extruder = 1
; perimeter_extrusion_width = 16.88
; perimeter_generator = arachne
