; generated by PrusaSlicer 2.9.2 on 2025-05-11 at 14:30:40 UTC

;

; external perimeters extrusion width = 16.88mm
; perimeters extrusion width = 16.88mm
; infill extrusion width = 16.88mm
; solid infill extrusion width = 16.88mm
; top infill extrusion width = 15.00mm
; first layer extrusion width = 15.75mm

M104 S200 ; set temperature
;TYPE:Custom
G28 ; home all axes
G1 Z5 F5000 ; lift nozzle
M109 S200 ; set temperature and wait for it to be reached
G21 ; set units to millimeters
G90 ; use absolute coordinates
M82 ; use absolute distances for extrusion
G92 E0
; Filament gcode
M107
;LAYER_CHANGE
;Z:7.5
;HEIGHT:7.5
G1 E-2 F2400
G92 E0
G1 Z7.5 F7200
G92 E0
G1 X269.25 Y213.199
G1 E2 F2400
;TYPE:Perimeter
;WIDTH:16.1352
G1 F7200
G1 X269.904 Y213.217 E2.0785
;WIDTH:16.172
G1 X270.558 Y213.235 E2.1572
;WIDTH:16.1884
G1 X274.117 Y213.244 E2.58582
;WIDTH:16.1941
G1 X274.915 Y213.246 E2.68196
;WIDTH:16.2036
G1 X275.712 Y213.251 E2.77805
;WIDTH:16.2171
G1 X276.51 Y213.258 E2.87435
;WIDTH:16.2344
G1 X277.307 Y213.267 E2.97064
;WIDTH:16.2557
G1 X278.105 Y213.277 E3.0672
;WIDTH:16.2809
G1 X278.902 Y213.29 E3.16381
;WIDTH:16.3099
G1 X279.7 Y213.304 E3.26073
;WIDTH:16.3429
G1 X280.497 Y213.321 E3.35775
;WIDTH:16.3798
G1 X281.295 Y213.339 E3.45514
;WIDTH:16.4206
G1 X282.092 Y213.36 E3.55269
;WIDTH:16.4653
G1 X282.89 Y213.382 E3.65066
;WIDTH:16.5139
G1 X283.687 Y213.406 E3.74883
;WIDTH:16.5402
G1 X284.086 Y213.42 E3.79807
;WIDTH:16.5664
G1 X284.485 Y213.433 E3.84739
;WIDTH:16.5946
G1 X284.884 Y213.447 E3.89681
;WIDTH:16.6228
G1 X285.282 Y213.461 E3.9462
;WIDTH:16.653
G1 X285.681 Y213.476 E3.99582
;WIDTH:16.6832
G1 X286.08 Y213.491 E4.04554
;WIDTH:16.7153
G1 X286.479 Y213.507 E4.09537
;WIDTH:16.7474
G1 X286.877 Y213.523 E4.14518
;WIDTH:16.7815
G1 X287.276 Y213.54 E4.19523
;WIDTH:16.8155
G1 X287.675 Y213.557 E4.24539
;WIDTH:16.8516
G1 X288.074 Y213.575 E4.29568
;WIDTH:16.8876
G1 X288.472 Y213.593 E4.34596
;WIDTH:16.9256
G1 X288.871 Y213.612 E4.3965
;WIDTH:16.9635
G1 X289.27 Y213.631 E4.44716
;WIDTH:16.9774
G1 X290.231 Y213.638 E4.56916
;WIDTH:16.9969
G1 X291.191 Y213.648 E4.69119
;WIDTH:17.0067
G1 X291.613 Y213.653 E4.74487
;WIDTH:17.0248
G1 X294.604 Y213.662 E5.12575
;WIDTH:17.0311
G1 X295.361 Y213.665 E5.22219
;WIDTH:17.041
G1 X296.118 Y213.67 E5.31869
;WIDTH:17.0543
G1 X296.876 Y213.677 E5.4154
;WIDTH:17.0712
G1 X297.633 Y213.685 E5.51209
;WIDTH:17.0916
G1 X298.39 Y213.695 E5.60891
;WIDTH:17.1154
G1 X299.147 Y213.707 E5.70589
;WIDTH:17.1428
G1 X299.904 Y213.721 E5.80304
;WIDTH:17.1511
G1 X301.754 Y213.725 E6.04055
;WIDTH:17.1578
G1 X302.675 Y213.728 E6.15884
;WIDTH:17.1697
G1 X303.596 Y213.734 E6.27723
;WIDTH:17.1868
G1 X305.304 Y213.739 E6.49701
;WIDTH:17.1801
G1 X306.091 Y213.738 E6.59824
;WIDTH:17.1781
G1 X306.878 Y213.739 E6.69945
;WIDTH:17.1828
G1 X307.665 Y213.741 E6.80069
;WIDTH:17.1913
G1 X308.452 Y213.745 E6.90199
;WIDTH:17.2036
G1 X309.239 Y213.751 E7.00337
;WIDTH:17.2197
G1 X310.026 Y213.759 E7.10486
;WIDTH:17.2396
G1 X310.813 Y213.769 E7.20648
;WIDTH:17.2632
G1 X311.6 Y213.781 E7.30826
;WIDTH:17.2907
G1 X312.387 Y213.795 E7.41022
;WIDTH:17.3219
G1 X313.174 Y213.81 E7.51239
;WIDTH:17.357
G1 X313.961 Y213.828 E7.61479
;WIDTH:17.3958
G1 X314.748 Y213.847 E7.71745
;WIDTH:17.4384
G1 X315.535 Y213.869 E7.8204
;WIDTH:17.4848
G1 X316.321 Y213.892 E7.92352
G1 X317.663 Y213.884 E8.09951
;WIDTH:17.469
G1 X318.43 Y213.88 E8.2
;WIDTH:17.4618
G1 X319.198 Y213.879 E8.30057
;WIDTH:17.4582
G1 X319.966 Y213.879 E8.40112
;WIDTH:17.4617
G1 X320.734 Y213.88 E8.50169
;WIDTH:17.4689
G1 X321.501 Y213.884 E8.60217
;WIDTH:17.4797
G1 X322.269 Y213.889 E8.70286
;WIDTH:17.4941
G1 X323.037 Y213.896 E8.80364
G1 X323.308 Y213.875 E8.83931
;WIDTH:17.4517
G1 X323.579 Y213.854 E8.87488
;WIDTH:17.4094
G1 X323.851 Y213.833 E8.91049
;WIDTH:17.3671
G1 X324.122 Y213.812 E8.94587
;WIDTH:17.3247
G1 X324.383 Y213.792 E8.97985
;WIDTH:17.2846
G1 X324.644 Y213.772 E9.01375
;WIDTH:17.2445
G1 X324.905 Y213.752 E9.04756
;WIDTH:17.2045
G1 X325.166 Y213.732 E9.08128
;WIDTH:17.1656
G1 X325.427 Y213.713 E9.11491
;WIDTH:17.1268
G1 X325.688 Y213.693 E9.14846
;WIDTH:17.088
G1 X325.949 Y213.675 E9.18191
;WIDTH:17.0504
G1 X326.209 Y213.656 E9.21516
;WIDTH:17.0128
G1 X326.47 Y213.637 E9.24846
;WIDTH:16.9752
G1 X326.731 Y213.619 E9.28167
;WIDTH:16.9389
G1 X326.992 Y213.601 E9.3148
;WIDTH:16.9026
G1 X327.253 Y213.583 E9.34785
;WIDTH:16.8663
G1 X327.514 Y213.565 E9.38082
;WIDTH:16.8312
G1 X327.775 Y213.548 E9.41371
;WIDTH:16.7962
G1 X328.036 Y213.53 E9.44653
;WIDTH:16.7611
G1 X328.297 Y213.513 E9.47927
;WIDTH:16.7273
G1 X328.558 Y213.496 E9.51193
;WIDTH:16.6935
G1 X328.819 Y213.479 E9.54452
;WIDTH:16.6597
G1 X329.21 Y213.455 E9.59322
;WIDTH:16.6109
G1 X329.602 Y213.43 E9.6419
;WIDTH:16.5621
G1 X329.993 Y213.407 E9.69028
;WIDTH:16.5152
G1 X330.384 Y213.384 E9.73851
;WIDTH:16.4682
G1 X330.776 Y213.361 E9.78671
;WIDTH:16.4232
G1 X331.167 Y213.339 E9.83463
;WIDTH:16.3782
G1 X331.559 Y213.317 E9.88253
;WIDTH:16.335
G1 X331.95 Y213.295 E9.93017
;WIDTH:16.2918
G1 X332.341 Y213.275 E9.97765
;WIDTH:16.2506
G1 X332.733 Y213.254 E10.02513
;WIDTH:16.2093
G1 X333.179 Y213.231 E10.07899
;WIDTH:16.1633
G1 X333.625 Y213.208 E10.13268
;WIDTH:16.1173
G1 X334.072 Y213.185 E10.18632
;WIDTH:16.0714
G1 X334.518 Y213.162 E10.23967
;WIDTH:16.0254
G1 X334.964 Y213.139 E10.29285
;WIDTH:15.9794
G1 X335.411 Y213.116 E10.34598
;WIDTH:15.9334
G1 X335.857 Y213.093 E10.39882
;WIDTH:15.8874
G1 X336.303 Y213.07 E10.45149
;WIDTH:15.8414
G1 X336.75 Y213.047 E10.50411
;WIDTH:15.7954
G1 X337.196 Y213.024 E10.55644
;WIDTH:15.7495
G1 X337.57 Y213.005 E10.60018
;WIDTH:15.7118
G1 X337.944 Y212.987 E10.6438
;WIDTH:15.6742
G1 X338.317 Y212.969 E10.68719
;WIDTH:15.6382
G1 X338.691 Y212.951 E10.73058
;WIDTH:15.6023
G1 X339.065 Y212.934 E10.77386
;WIDTH:15.5681
G1 X339.439 Y212.916 E10.81703
;WIDTH:15.5339
G1 X339.813 Y212.9 E10.86009
;WIDTH:15.5014
G1 X340.186 Y212.884 E10.90293
;WIDTH:15.4689
G1 X340.56 Y212.869 E10.94578
;WIDTH:15.4382
G1 X340.934 Y212.853 E10.98854
;WIDTH:15.4074
G1 X341.308 Y212.839 E11.0312
;WIDTH:15.3784
G1 X341.681 Y212.824 E11.07366
;WIDTH:15.3494
G1 X342.055 Y212.81 E11.11614
;WIDTH:15.3221
G1 X342.429 Y212.797 E11.15853
;WIDTH:15.2947
G1 X343.073 Y212.774 E11.23138
;WIDTH:15.2491
G1 X343.718 Y212.751 E11.3041
;WIDTH:15.2035
G1 X344.362 Y212.728 E11.37646
;WIDTH:15.1579
G1 X345.007 Y212.706 E11.44869
;WIDTH:15.1123
G1 X345.651 Y212.683 E11.52057
;WIDTH:15.0667
G1 X346.296 Y212.66 E11.59232
;WIDTH:15.0211
G1 X346.94 Y212.637 E11.66371
;WIDTH:14.9755
G1 X347.585 Y212.614 E11.73497
;WIDTH:14.9299
G1 X347.995 Y212.6 E11.78011
;WIDTH:14.9019
G1 X348.406 Y212.586 E11.82527
;WIDTH:14.8739
G1 X348.816 Y212.573 E11.87022
;WIDTH:14.848
G1 X349.226 Y212.56 E11.91508
;WIDTH:14.822
G1 X350.047 Y212.537 E12.00472
;WIDTH:14.7744
G1 X350.868 Y212.515 E12.09404
;WIDTH:14.7308
G1 X351.688 Y212.495 E12.18295
;WIDTH:14.6915
G1 X352.509 Y212.478 E12.27169
;WIDTH:14.6563
G1 X353.33 Y212.462 E12.36019
;WIDTH:14.6252
G1 X354.15 Y212.449 E12.44837
;WIDTH:14.5983
G1 X354.971 Y212.437 E12.53647
;WIDTH:14.5756
G1 X355.792 Y212.428 E12.62441
;WIDTH:14.557
G1 X356.612 Y212.421 E12.71212
;WIDTH:14.5426
G1 X357.433 Y212.416 E12.79983
;WIDTH:14.5323
G1 X358.254 Y212.413 E12.88747
;WIDTH:14.5262
G1 X359.074 Y212.412 E12.97496
;WIDTH:14.5265
G1 X359.895 Y212.413 E13.06256
;WIDTH:14.5328
G1 X360.716 Y212.416 E13.15021
;WIDTH:14.5434
G1 X361.536 Y212.421 E13.23782
;WIDTH:14.558
G1 X362.357 Y212.428 E13.32564
G1 X362.617 Y212.408 E13.35353
;WIDTH:14.5166
G1 X362.878 Y212.387 E13.38145
;WIDTH:14.4751
G1 X363.138 Y212.366 E13.40917
;WIDTH:14.4336
G1 X363.398 Y212.346 E13.43679
;WIDTH:14.3934
G1 X363.658 Y212.326 E13.46433
;WIDTH:14.3532
G1 X363.919 Y212.306 E13.49189
;WIDTH:14.313
G1 X364.179 Y212.286 E13.51925
;WIDTH:14.2741
G1 X364.439 Y212.267 E13.54652
;WIDTH:14.2351
G1 X364.7 Y212.248 E13.57381
;WIDTH:14.1962
G1 X364.96 Y212.229 E13.60092
;WIDTH:14.1585
G1 X365.22 Y212.21 E13.62794
;WIDTH:14.1208
G1 X365.48 Y212.191 E13.65488
;WIDTH:14.0832
G1 X365.741 Y212.173 E13.68184
;WIDTH:14.0467
G1 X366.001 Y212.155 E13.70862
;WIDTH:14.0103
G1 X366.261 Y212.136 E13.73533
;WIDTH:13.9739
G1 X366.521 Y212.119 E13.76194
;WIDTH:13.9387
G1 X366.782 Y212.101 E13.78859
;WIDTH:13.9036
G1 X367.042 Y212.084 E13.81505
;WIDTH:13.8684
G1 X367.302 Y212.067 E13.84144
;WIDTH:13.8345
G1 X367.563 Y212.05 E13.86785
;WIDTH:13.8007
G1 X367.823 Y212.033 E13.89409
;WIDTH:13.7668
G1 X368.213 Y212.008 E13.93334
;WIDTH:13.7178
G1 X368.604 Y211.984 E13.97252
;WIDTH:13.6689
G1 X368.994 Y211.96 E14.01144
;WIDTH:13.6218
G1 X369.384 Y211.937 E14.05021
;WIDTH:13.5748
G1 X369.775 Y211.914 E14.08892
;WIDTH:13.5296
G1 X370.165 Y211.892 E14.12738
;WIDTH:13.4845
G1 X370.556 Y211.87 E14.1658
;WIDTH:13.4412
G1 X370.946 Y211.848 E14.20398
;WIDTH:13.3979
G1 X371.337 Y211.828 E14.24211
;WIDTH:13.3566
G1 X371.727 Y211.807 E14.28001
;WIDTH:13.3152
G1 X372.117 Y211.787 E14.31777
;WIDTH:13.2757
G1 X372.508 Y211.768 E14.3555
;WIDTH:13.2362
G1 X372.898 Y211.749 E14.393
;WIDTH:13.1987
G1 X373.289 Y211.73 E14.43048
;WIDTH:13.1611
G1 X373.679 Y211.712 E14.46773
;WIDTH:13.1254
G1 X374.069 Y211.694 E14.50487
;WIDTH:13.0897
G1 X374.46 Y211.677 E14.54198
;WIDTH:13.0559
G1 X374.85 Y211.661 E14.57889
;WIDTH:13.0221
G1 X375.241 Y211.645 E14.61578
;WIDTH:12.9902
G1 X375.631 Y211.629 E14.65248
;WIDTH:12.9583
G1 X376.064 Y211.612 E14.6931
;WIDTH:12.9246
G1 X376.497 Y211.595 E14.7336
;WIDTH:12.891
G1 X376.931 Y211.578 E14.77408
;WIDTH:12.8573
G1 X377.338 Y211.563 E14.81192
;WIDTH:12.8281
G1 X377.746 Y211.549 E14.84975
;WIDTH:12.7989
G1 X378.154 Y211.535 E14.88748
;WIDTH:12.7717
G1 X378.562 Y211.522 E14.92512
;WIDTH:12.7445
G1 X378.969 Y211.509 E14.96258
;WIDTH:12.7194
G1 X379.377 Y211.497 E15.00004
;WIDTH:12.6943
G1 X380.193 Y211.474 E15.07479
;WIDTH:12.6483
G1 X381.008 Y211.453 E15.14913
;WIDTH:12.6063
G1 X381.824 Y211.434 E15.22328
;WIDTH:12.5685
G1 X382.639 Y211.417 E15.29708
;WIDTH:12.5349
G1 X383.455 Y211.402 E15.37074
;WIDTH:12.5053
G1 X384.271 Y211.389 E15.44419
;WIDTH:12.4799
G1 X385.086 Y211.379 E15.51738
;WIDTH:12.4587
G1 X385.902 Y211.37 E15.59052
;WIDTH:12.4415
G1 X386.717 Y211.364 E15.66345
;WIDTH:12.4285
G1 X387.533 Y211.359 E15.73638
;WIDTH:12.4197
G1 X388.348 Y211.357 E15.80916
;WIDTH:12.4149
G1 X388.876 Y211.356 E15.85629
;WIDTH:12.4178
G1 X389.979 Y211.358 E15.95477
;WIDTH:12.4255
G1 X390.795 Y211.362 E16.02768
;WIDTH:12.4545
G1 X393.229 Y211.377 E16.24574
;WIDTH:12.4835
G1 X395.663 Y211.391 E16.46438
;WIDTH:12.495
G1 X396.458 Y211.397 E16.53587
;WIDTH:12.5103
G1 X397.253 Y211.405 E16.60746
;WIDTH:12.5296
G1 X398.048 Y211.414 E16.67918
;WIDTH:12.5529
G1 X398.843 Y211.426 E16.75106
;WIDTH:12.58
G1 X399.638 Y211.439 E16.82312
;WIDTH:12.6111
G1 X400.433 Y211.455 E16.89538
;WIDTH:12.6461
G1 X401.228 Y211.472 E16.96788
;WIDTH:12.685
G1 X402.023 Y211.492 E17.04064
;WIDTH:12.7279
G1 X402.818 Y211.513 E17.11368
;WIDTH:12.7747
G1 X403.613 Y211.537 E17.18704
;WIDTH:12.8
G1 X404.011 Y211.549 E17.22385
;WIDTH:12.8254
G1 X404.408 Y211.562 E17.26065
;WIDTH:12.8527
G1 X404.806 Y211.576 E17.29764
;WIDTH:12.88
G1 X405.203 Y211.589 E17.33462
;WIDTH:12.9093
G1 X405.601 Y211.604 E17.3718
;WIDTH:12.9386
G1 X405.998 Y211.619 E17.40898
;WIDTH:12.9698
G1 X406.396 Y211.634 E17.44636
;WIDTH:13.0011
G1 X406.793 Y211.65 E17.48375
;WIDTH:13.0343
G1 X407.191 Y211.667 E17.52135
;WIDTH:13.0675
G1 X407.588 Y211.683 E17.55896
;WIDTH:13.1027
G1 X407.986 Y211.701 E17.59679
;WIDTH:13.1378
G1 X408.384 Y211.718 E17.63473
;WIDTH:13.175
G1 X408.781 Y211.737 E17.6727
;WIDTH:13.2121
G1 X409.179 Y211.756 E17.71089
;WIDTH:13.2512
G1 X409.576 Y211.775 E17.74911
;WIDTH:13.2903
G1 X409.974 Y211.795 E17.78756
;WIDTH:13.3314
G1 X410.371 Y211.815 E17.82605
;WIDTH:13.3724
G1 X410.769 Y211.836 E17.86478
;WIDTH:13.4155
G1 X411.166 Y211.857 E17.90355
;WIDTH:13.4585
G1 X411.564 Y211.879 E17.94257
;WIDTH:13.5035
G1 X411.961 Y211.901 E17.98164
;WIDTH:13.5485
G1 X412.359 Y211.924 E18.02096
;WIDTH:13.5954
G1 X412.756 Y211.947 E18.06033
;WIDTH:13.6424
G1 X413.154 Y211.971 E18.09996
;WIDTH:13.6913
G1 X413.551 Y211.995 E18.13965
;WIDTH:13.7402
G1 X413.949 Y212.02 E18.17961
;WIDTH:13.7741
G1 X414.214 Y212.037 E18.20629
;WIDTH:13.808
G1 X414.479 Y212.053 E18.23304
;WIDTH:13.842
G1 X414.744 Y212.07 E18.25987
;WIDTH:13.8772
G1 X415.009 Y212.088 E18.28679
;WIDTH:13.9124
G1 X415.274 Y212.106 E18.31378
;WIDTH:13.9476
G1 X415.539 Y212.123 E18.34084
;WIDTH:13.9842
G1 X415.804 Y212.142 E18.368
;WIDTH:14.0207
G1 X416.069 Y212.16 E18.39523
;WIDTH:14.0572
G1 X416.334 Y212.178 E18.42254
;WIDTH:14.0951
G1 X416.599 Y212.197 E18.44994
;WIDTH:14.1329
G1 X416.864 Y212.216 E18.47743
;WIDTH:14.1708
G1 X417.129 Y212.235 E18.505
;WIDTH:14.2099
G1 X417.394 Y212.254 E18.53265
;WIDTH:14.2491
G1 X417.659 Y212.274 E18.5604
;WIDTH:14.2882
G1 X417.924 Y212.294 E18.58823
;WIDTH:14.3287
G1 X418.189 Y212.314 E18.61615
;WIDTH:14.3692
G1 X418.454 Y212.334 E18.64416
;WIDTH:14.4096
G1 X418.719 Y212.354 E18.67226
;WIDTH:14.4514
G1 X418.984 Y212.375 E18.70046
;WIDTH:14.4932
G1 X419.249 Y212.396 E18.72875
;WIDTH:14.535
G1 X419.514 Y212.417 E18.75713
;WIDTH:14.578
G1 X419.779 Y212.438 E18.78561
;WIDTH:14.6211
G1 X420.044 Y212.46 E18.81419
;WIDTH:14.6642
G1 X420.309 Y212.482 E18.84287
;WIDTH:14.7086
G1 X420.574 Y212.504 E18.87164
;WIDTH:14.753
G1 X420.839 Y212.526 E18.90051
;WIDTH:14.7974
G1 X421.104 Y212.548 E18.92948
;WIDTH:14.8354
G1 X421.326 Y212.567 E18.95382
;WIDTH:14.8735
G1 X421.547 Y212.586 E18.97812
;WIDTH:14.9115
G1 X421.768 Y212.605 E19.00249
;WIDTH:14.9525
G1 X422 Y212.626 E19.02817
;WIDTH:14.9935
G1 X422.231 Y212.646 E19.0538
;WIDTH:15.0345
G1 X422.463 Y212.667 E19.07963
;WIDTH:15.0755
G1 X422.694 Y212.687 E19.10542
;WIDTH:15.1238
G1 X422.959 Y212.711 E19.13512
;WIDTH:15.1721
G1 X423.224 Y212.736 E19.16494
;WIDTH:15.2204
G1 X423.49 Y212.76 E19.19497
;WIDTH:15.2701
G1 X423.755 Y212.784 E19.225
;WIDTH:15.3197
G1 X424.02 Y212.809 E19.25515
;WIDTH:15.3693
G1 X424.285 Y212.834 E19.2854
;WIDTH:15.4075
G1 X424.483 Y212.853 E19.30807
;WIDTH:15.4457
G1 X424.682 Y212.872 E19.33092
;WIDTH:15.4839
G1 X424.881 Y212.891 E19.35383
;WIDTH:15.5221
G1 X425.08 Y212.911 E19.37682
;WIDTH:15.5613
G1 X425.278 Y212.93 E19.39974
;WIDTH:15.6005
G1 X425.477 Y212.95 E19.42286
;WIDTH:15.6397
G1 X425.676 Y212.969 E19.44603
;WIDTH:15.6789
G1 X425.875 Y212.989 E19.46927
;WIDTH:15.719
G1 X426.073 Y213.009 E19.49247
;WIDTH:15.7592
G1 X426.272 Y213.029 E19.51585
;WIDTH:15.7994
G1 X426.471 Y213.049 E19.53929
;WIDTH:15.8395
G1 X426.67 Y213.069 E19.5628
;WIDTH:15.8807
G1 X426.868 Y213.09 E19.58627
;WIDTH:15.9218
G1 X427.067 Y213.11 E19.60992
;WIDTH:15.963
G1 X427.266 Y213.131 E19.63365
;WIDTH:16.0041
G1 X427.465 Y213.152 E19.65744
;WIDTH:16.0462
G1 X427.664 Y213.173 E19.6813
;WIDTH:16.0884
G1 X427.862 Y213.194 E19.70511
;WIDTH:16.1305
G1 X428.061 Y213.215 E19.72911
;WIDTH:16.1726
G1 X428.26 Y213.236 E19.75318
;WIDTH:16.2157
G1 X428.459 Y213.257 E19.77732
;WIDTH:16.2588
G1 X428.657 Y213.279 E19.80143
;WIDTH:16.302
G1 X428.856 Y213.3 E19.82572
;WIDTH:16.3451
G1 X429.055 Y213.322 E19.85009
;WIDTH:16.3892
G1 X429.254 Y213.344 E19.87453
;WIDTH:16.4332
G1 X429.452 Y213.366 E19.89892
;WIDTH:16.4773
G1 X429.651 Y213.388 E19.92351
;WIDTH:16.5214
G1 X429.85 Y213.41 E19.94817
G1 E17.94817 F2400
G92 E0
G1 X256.232 Y198.884 F7200
G1 E2 F2400
;WIDTH:15.75
G1 F7200
G1 X444.376 Y198.884 E23.97699
G1 X444.376 Y213.41 E25.67376
G1 X444.376 Y232.256 E27.87515
G1 X440.68 Y231.137 E28.32623
G1 X437.677 Y230.305 E28.69022
G1 X435.446 Y229.73 E28.95934
G1 X432.143 Y228.939 E29.35607
G1 X429.374 Y228.226 E29.69007
G1 X426.632 Y227.575 E30.01926
G1 X424.508 Y227.109 E30.27326
G1 X421.661 Y226.535 E30.61251
G1 X419.397 Y226.12 E30.88137
G1 X416.642 Y225.663 E31.20758
G1 X413.755 Y225.242 E31.54838
G1 X410.856 Y224.876 E31.8897
G1 X408.675 Y224.64 E32.14595
G1 X405.76 Y224.374 E32.48786
G1 X402.838 Y224.166 E32.83004
G1 X399.911 Y224.015 E33.1724
G1 X397.713 Y223.94 E33.4293
G1 X389.894 Y223.832 E34.34272
G1 X386.885 Y223.842 E34.6942
G1 X383.125 Y223.94 E35.13355
G1 X380.872 Y224.045 E35.39701
